!!!!SEGMENT: pl-wnifc--6730-n--007_sowinski-wojciech--chants-religieux-de-la-pologne-op-93-omni-die-o-mon-ame-a-jamis-publie.krn
!!!cenid: 18xx:4021
!!!COM: Sowiński, Wojciech
!!!COM-rismID: pe30008543
!!!CDT: ~1803-1880/03/05
!!!CNT:
!!!OTL: Chants religieux de la Pologne op. 93
!!!PDT: 1830
!!!AGN:
!!!SMS-siglum: PL-Wnifc
!!!SMS-shelfmark: 6730/n
!!!SMS-shelfwork: 007 W
!!!SMS-variant:
!!!SMS-altvar:
!!!NIFC-rismSourceID: 1001138229
!!!NIFC-islandoraID: nifc:213350
!!!URL-pdf-islandora: https://repozytorium.nifc.pl/islandora/object/nifc%3A213350/datastream/PDF/view
!!!URL-scan: https://polish.musicsources.pl/pl/lokalizacje/galeria/druki-muzyczne/16913 @EN{Scan on Polish Music Sources Website} @PL{Skany w portalu Dziedzictwo Muzyki Polskiej w otwartym dostępie}
!!!ONB-nifc: UWAGA: str. 25-31
!!!AIN: 1 calto 2 organ 2 soprn
!!!key: C
**kern	**kern	**dynam	**kern	**text	**dynam	**kern	**text	**dynam	**kern	**text	**dynam
*part5	*part4	*part4	*part3	*part3	*part3	*part2	*part2	*part2	*part1	*part1	*part1
*staff5	*staff4	*	*staff3	*staff3	*	*staff2	*staff2	*	*staff1	*staff1	*
*I"Organo	*I"ORGUE.	*	*I"CONTRALTO.	*	*	*I"2.d DESSUS.	*	*	*I"1.er DESSUS.	*	*
*	*I'org	*	*I'Contra-A	*	*	*I'S 2	*	*	*I'S 1	*	*
*Iorgan	*Iorgan	*	*Icalto	*	*	*Isoprn	*	*	*Isoprn	*	*
*ICklav	*ICklav	*	*ICvox	*	*	*ICvox	*	*	*ICvox	*	*
*clefF4	*clefG2	*	*clefG2	*	*	*clefG2	*	*	*clefG2	*	*
*k[]	*k[]	*	*k[]	*	*	*k[]	*	*	*k[]	*	*
*C:	*C:	*	*C:	*	*	*C:	*	*	*C:	*	*
*M4/4	*M4/4	*	*M4/4	*	*	*M4/4	*	*	*M4/4	*	*
*met(c)	*met(c)	*	*met(c)	*	*	*met(c)	*	*	*met(c)	*	*
=1	=1	=1	=1	=1	=1	=1	=1	=1	=1	=1	=1
!	!LO:TX:a:i:B:t=Mesto.	!	!	!	!	!	!	!	!LO:TX:a:i:B:t=Mesto.	!	!
1r	2cc^<\	.	1r	.	.	1r	.	.	1r	.	.
.	4.b\	.	.	.	.	.	.	.	.	.	.
.	8a/	.	.	.	.	.	.	.	.	.	.
=2	=2	=2	=2	=2	=2	=2	=2	=2	=2	=2	=2
2f^\	2a/	.	1r	.	.	1r	.	.	1r	.	.
4.e\	4.g/	.	.	.	.	.	.	.	.	.	.
8d\	8f/	.	.	.	.	.	.	.	.	.	.
=3	=3	=3	=3	=3	=3	=3	=3	=3	=3	=3	=3
2B\	2f^<\ 2dd	.	1r	.	.	1r	.	.	1r	.	.
2c\	2e^<\ 2cc	.	.	.	.	.	.	.	.	.	.
=4	=4	=4	=4	=4	=4	=4	=4	=4	=4	=4	=4
1G	1d^ 1b	.	1r	.	.	1r	.	.	1r	.	.
=5	=5	=5	=5	=5	=5	=5	=5	=5	=5	=5	=5
2F\	2d/ 2f 2a	<	1r	.	.	1r	.	.	1r	.	.
4.F\	4.a/	.	.	.	.	.	.	.	.	.	.
8E\	8g#X/	[[	.	.	.	.	.	.	.	.	.
!LO:LB:g=original	!LO:LB:g=original	!	!LO:LB:g=original	!	!	!LO:LB:g=original	!	!	!LO:LB:g=original	!	!
=6	=6	=6	=6	=6	=6	=6	=6	=6	=6	=6	=6
2F\	2a\	.	1r	.	.	1r	.	.	1r	.	.
2FF\ 2F	2f\ 2a 2dd	f	.	.	.	.	.	.	.	.	.
=7	=7	=7	=7	=7	=7	=7	=7	=7	=7	=7	=7
2GG\ 2G	2e\ 2g 2cc	.	1r	.	.	1r	.	.	1r	.	.
2GG\ 2G	4.e-X\ 4.f#X 4.cc	>	.	.	.	.	.	.	.	.	.
.	8d\ 8fn 8b	.	.	.	.	.	.	.	.	.	.
=8	=8	=8	=8	=8	=8	=8	=8	=8	=8	=8	=8
2GG\ 2G	2d\ 2f 2b	.	1r	.	.	1r	.	.	1r	.	.
2r	2r	]	.	.	.	.	.	.	.	.	.
=9	=9	=9	=9	=9	=9	=9	=9	=9	=9	=9	=9
*^	*^	*	*	*	*	*	*	*	*	*	*
!	!	!	!	!	!	!	!	!	!	!LO:DY:a	!	!	!LO:DY:a
4C/	1C	2cc/	2e\	p	1r	.	.	(2e/	O	p	(2cc\	O	p
4G/	.	.	.	.	.	.	.	.	.	.	.	.	.
4G/	.	4.b^/	4.g\	.	.	.	.	4.g/)	.	.	4.b\)	.	.
4G/	.	.	.	.	.	.	.	.	.	.	.	.	.
.	.	8a/	8f\	.	.	.	.	8f/	mon	.	8a\	mon	.
*	*	*v	*v	*	*	*	*	*	*	*	*	*	*
=10	=10	=10	=10	=10	=10	=10	=10	=10	=10	=10	=10	=10
4C/	1C	2c/ 2f 2a	.	4r	.	.	2f/	â-	.	2a/	â-	.
!	!	!	!	!	!	!LO:DY:a	!	!	!	!	!	!
4G/	.	.	.	4c/	O	p	.	.	.	.	.	.
4G/	.	2c/ 2e 2g	.	4c/	mon	.	2e/	-me	.	2g/	-me	.
4G/	.	.	.	4c/	â-	.	.	.	.	.	.	.
=11	=11	=11	=11	=11	=11	=11	=11	=11	=11	=11	=11	=11
*	*	*^	*	*	*	*	*	*	*	*	*	*
4GG/	1GG	2a/	1B 1d	.	4B/	-me	.	4d/	à	.	4a/	à	.
4G/	.	.	.	.	4B/	ja-	.	4d/	ja-	.	4a/	ja-	.
4G/	.	4.g^/	.	.	4.B/	-mais	.	4.d/	-mais	.	4.g/	-mais	.
4G/	.	.	.	.	.	.	.	.	.	.	.	.	.
.	.	8f/	.	.	8B/	pu-	.	8d/	pu-	.	8f/	pu-	.
!LO:PB:g=original	!	!LO:PB:g=original	!	!	!LO:PB:g=original	!	!	!LO:PB:g=original	!	!	!LO:PB:g=original	!	!
*	*	*v	*v	*	*	*	*	*	*	*	*	*	*
=12	=12	=12	=12	=12	=12	=12	=12	=12	=12	=12	=12	=12
4C/	2C\	2d/ 2f	.	2B/	-bli-	.	2d/	-bli-	.	2f/	-bli-	.
4G/	.	.	.	.	.	.	.	.	.	.	.	.
4G/	2ryy	2c/ 2e	.	2B/	-e	.	2d/	-e	.	2e/	-e	.
4G/	.	.	.	.	.	.	.	.	.	.	.	.
=13	=13	=13	=13	=13	=13	=13	=13	=13	=13	=13	=13	=13
!	!	!	!	!	!	!LO:DY:a	!	!	!LO:DY:a	!	!	!LO:DY:a
4GG/	2GG\	2B/ 2d 2g	<	(4.B/	Le	<	2d/	Le	<	2g/	Le	<
2G\	.	.	.	.	.	.	.	.	.	.	.	.
.	.	.	.	8d/)	.	.	.	.	.	.	.	.
.	2ryy	2B/ 2d 2g	[[	2g/	nom	[[	2g/	nom	[[	2g/	nom	[[
4F#X\	.	.	.	.	.	.	.	.	.	.	.	.
*v	*v	*	*	*	*	*	*	*	*	*	*	*
=14	=14	=14	=14	=14	=14	=14	=14	=14	=14	=14	=14
!	!	!	!	!	!LO:DY:a	!	!	!LO:DY:a	!	!	!LO:DY:a
2Fn\	2d/ 2a	sf	2f/	de	f	2f/	de	f	2a/	de	f
2DD/ 2D	2f\ 2a 2dd 2ff	f	2d^>/	la	.	2a^>/	la	.	2ff^\	la	.
=15	=15	=15	=15	=15	=15	=15	=15	=15	=15	=15	=15
2GG\ 2G	2g\ 2cc 2ee	.	2g/	Mè-	.	2cc\	Mè-	.	2ee\	Mè-	.
2GG\ 2G	4.g^\ 4.b 4.dd	>	4.g/	-re	.	4.b\	-re	.	4.dd\	-re	.
.	8f\ 8g 8b	]]	8f/	de	.	8g/	de	.	8b\	de	.
=16	=16	=16	=16	=16	=16	=16	=16	=16	=16	=16	=16
*^	*	*	*	*	*	*	*	*	*	*	*
4C/	1C	2e\ 2g 2cc	p	2e/	Dieu	.	2g/	Dieu	.	2cc\	Dieu	.
(4G/	.	.	.	.	.	.	.	.	.	.	.	.
4A/	.	4r	.	4r	.	.	4r	.	.	4r	.	.
!	!	!	!	!	!	!LO:DY:a	!	!	!LO:DY:a	!	!	!LO:DY:a
4G/)	.	4g\	.	4g/	Ra	p	4g/	Ra	p	4g/	Ra-	p
!LO:LB:g=original	!	!LO:LB:g=original	!	!LO:LB:g=original	!	!	!LO:LB:g=original	!	!	!LO:LB:g=original	!	!
=17	=17	=17	=17	=17	=17	=17	=17	=17	=17	=17	=17	=17
*	*	*^	*	*	*	*	*	*	*	*	*	*
4C\	1C	2cc/	2e\	.	2c/	-conte	.	2e/	-conte	.	2cc\	-conte	.
4G\	.	.	.	.	.	.	.	.	.	.	.	.	.
4G\	.	4.b/	4.g\	.	4.c/	au	.	4.g/	au	.	4.b\	au	.
4G\	.	.	.	.	.	.	.	.	.	.	.	.	.
.	.	8a/	8f\	.	8c/	pé-	.	8f/	pé-	.	8a\	pé-	.
*	*	*v	*v	*	*	*	*	*	*	*	*	*	*
=18	=18	=18	=18	=18	=18	=18	=18	=18	=18	=18	=18	=18
4C/	1C	(>2c^>/ 2f 2a	.	1c	-cheur	.	(>2f/	-cheur	.	(2a\	-cheur	.
4G/	.	.	.	.	.	.	.	.	.	.	.	.
4G/	.	2c/) 2e 2g	.	.	.	.	2e/)	.	.	2g\)	.	.
4G/	.	.	.	.	.	.	.	.	.	.	.	.
=19	=19	=19	=19	=19	=19	=19	=19	=19	=19	=19	=19	=19
*	*	*^	*	*	*	*	*	*	*	*	*	*
4GG\	1GG	2f/ 2a	1B 1d	.	2B/	qui	.	2f/	qui	.	2a\	qui	.
4G\	.	.	.	.	.	.	.	.	.	.	.	.	.
4G\	.	4.g/	.	.	(>4.B/	l`ou-	.	2d/	l`ou-	.	(>4.g/	l`ou-	.
4G\	.	.	.	.	.	.	.	.	.	.	.	.	.
.	.	8f/	.	.	8d/)	.	.	.	.	.	8f/)	.	.
*v	*v	*	*	*	*	*	*	*	*	*	*	*	*
*	*v	*v	*	*	*	*	*	*	*	*	*	*
=20	=20	=20	=20	=20	=20	=20	=20	=20	=20	=20	=20
4C\	2d/ 2f	.	2B/	-bli-	.	2d/	-bli-	.	2f/	-bli-	.
4G\	.	.	.	.	.	.	.	.	.	.	.
4C\	2c/ 2e	.	2c/	-e	.	2e/	-e	.	2e/	-e	.
4G\	.	.	.	.	.	.	.	.	.	.	.
=21	=21	=21	=21	=21	=21	=21	=21	=21	=21	=21	=21
!	!	!	!	!	!LO:DY:a	!	!	!LO:DY:a	!	!	!LO:DY:a
4GG/	2B/ 2d 2g	<	(4.B/	Sa	<	2d/	Sa	<	2g/	Sa	<
2G\	.	.	.	.	.	.	.	.	.	.	.
.	.	.	8d/)	.	.	.	.	.	.	.	.
.	2B/ 2d 2g	[[	2G/	bon	[[	2g/	bon-	[[	2g/	bon-	[[
4F#X\	.	.	.	.	.	.	.	.	.	.	.
!LO:LB:g=original	!LO:LB:g=original	!	!LO:LB:g=original	!	!	!LO:LB:g=original	!	!	!LO:LB:g=original	!	!
=22	=22	=22	=22	=22	=22	=22	=22	=22	=22	=22	=22
!	!	!	!	!	!LO:DY:a	!	!	!LO:DY:a	!	!	!LO:DY:a
2Fn\	2d/ 2a	f	2d/	-té	f	2f/	-té	f	2a\	-té	f
4DD/	2f^\ 2a 2dd 2ff	.	2d/	sa	.	2a/	sa	.	2ff^\	sa	.
4D/	.	.	.	.	.	.	.	.	.	.	.
=23	=23	=23	=23	=23	=23	=23	=23	=23	=23	=23	=23
*	*^	*	*	*	*	*	*	*	*	*	*
4GG/	2ee\	2g\ 2cc	.	2g/	gloire	.	2cc\	gloire	.	2ee\	gloire	.
4G\	.	.	.	.	.	.	.	.	.	.	.	.
4GG/	4.b^/ 4.dd	2f\ 2g	.	4.g/	en	.	4.b\	en	.	4.dd\	en	.
4G\	.	.	.	.	.	.	.	.	.	.	.	.
.	8b/	.	.	8f/	tout	.	8g/	tout	.	8b\	tout	.
*	*v	*v	*	*	*	*	*	*	*	*	*	*
=24	=24	=24	=24	=24	=24	=24	=24	=24	=24	=24	=24
4C\	2e/ 2g 2cc	.	2e/	lieu	.	2cc\	lieu	.	2cc\	lieu	.
4c\	.	.	.	.	.	.	.	.	.	.	.
4G\	2r	.	2r	.	.	2r	.	.	2r	.	.
4E\	.	.	.	.	.	.	.	.	.	.	.
=25||	=25||	=25||	=25||	=25||	=25||	=25||	=25||	=25||	=25||	=25||	=25||
!	!	!	!	!	!LO:DY:a	!	!	!LO:DY:a	!	!	!LO:DY:a
1C 1c	(8ee\L	mf	2c/	An-	mf	2g/	An-	mf	2ee\	An-	mf
.	8e\	.	.	.	.	.	.	.	.	.	.
.	8g\	.	.	.	.	.	.	.	.	.	.
.	8dd\J	.	.	.	.	.	.	.	.	.	.
.	8ee\L	.	4e/	-ge	.	4g/	-ge	.	4cc\	-ge	.
.	8cc\	.	.	.	.	.	.	.	.	.	.
.	8g\	.	4e/	fi-	.	4g/	fi-	.	4cc\	fi-	.
.	8e\J)	.	.	.	.	.	.	.	.	.	.
=26	=26	=26	=26	=26	=26	=26	=26	=26	=26	=26	=26
*^	*	*	*	*	*	*	*	*	*	*	*
4c/	2C\	(8cc\L	.	(>4e/	-dè-	.	2g/	-dè-	.	(4cc\	-dè-	.
.	.	8e\	.	.	.	.	.	.	.	.	.	.
4B/	.	8dd\	.	4d/)	.	.	.	.	.	4dd\)	.	.
.	.	8g\J	.	.	.	.	.	.	.	.	.	.
2c/	2C\	8ee\L	.	2c/	-le	.	2g/	-le	.	2ee\	-le	.
.	.	8cc\	.	.	.	.	.	.	.	.	.	.
.	.	8g\	.	.	.	.	.	.	.	.	.	.
.	.	8e\J)	.	.	.	.	.	.	.	.	.	.
!LO:LB:g=original	!LO:LB:g=original	!LO:LB:g=original	!	!LO:LB:g=original	!	!	!LO:LB:g=original	!	!	!LO:LB:g=original	!	!
*v	*v	*	*	*	*	*	*	*	*	*	*	*
=27	=27	=27	=27	=27	=27	=27	=27	=27	=27	=27	=27
2GG^\ 2G	(8dd\L	.	(2B/	An-	.	1g	An-	.	(2dd\	An-	.
.	8b\	.	.	.	.	.	.	.	.	.	.
.	8dd\	.	.	.	.	.	.	.	.	.	.
.	8g\J	.	.	.	.	.	.	.	.	.	.
4E\	2cc\)	.	2c/)	.	.	.	.	.	2cc\)	.	.
4C\	.	.	.	.	.	.	.	.	.	.	.
=28	=28	=28	=28	=28	=28	=28	=28	=28	=28	=28	=28
*^	*	*	*	*	*	*	*	*	*	*	*
!	!	!	!	!	!	!LO:DY:a	!	!	!LO:DY:a	!	!	!LO:DY:a
[2G/	4GG\	(8b\L	.	4d/	-ge	<	4g/	-ge	<	4b\	-ge	<
.	.	8g\	.	.	.	.	.	.	.	.	.	.
.	4C\	8cc\	.	4e/	d`a-	.	4g/	d`a-	.	4cc\	d`a-	.
.	.	8e\J	.	.	.	.	.	.	.	.	.	.
2G/]	2GG\	8dd\L	.	2f/	-mour	[[	2g/	-mour	[[	2dd\	-mour	[[
.	.	8b\	.	.	.	.	.	.	.	.	.	.
.	.	8g\	.	.	.	.	.	.	.	.	.	.
.	.	8d\J)	.	.	.	.	.	.	.	.	.	.
*v	*v	*	*	*	*	*	*	*	*	*	*	*
=29	=29	=29	=29	=29	=29	=29	=29	=29	=29	=29	=29
!	!	!	!	!	!LO:DY:a	!	!	!LO:DY:a	!	!	!LO:DY:a
2C\	(8cc\L	<	2e/	Chan-	>	2g/	Chan-	>	2cc\	Chan-	>
.	8g\	.	.	.	.	.	.	.	.	.	.
.	8e\	.	.	.	.	.	.	.	.	.	.
.	8g\J	.	.	.	.	.	.	.	.	.	.
2E\	8b\L	.	4e/	-te	.	4g/	-te	.	4b\	-te	.
.	8g\	.	.	.	.	.	.	.	.	.	.
.	8e\	.	4e/	pour	]	4g/	pour	]	4b\	pour	]
.	8g\J)	.	.	.	.	.	.	.	.	.	.
=30	=30	=30	=30	=30	=30	=30	=30	=30	=30	=30	=30
!	!	!	!	!	!LO:DY:a	!	!	!LO:DY:a	!	!	!LO:DY:a
2F\	(8a\L	f	2f/	elle	f	2f/	elle	f	2a\	elle	f
.	8f\	.	.	.	.	.	.	.	.	.	.
.	8g#X\	.	.	.	.	.	.	.	.	.	.
.	8a\J	.	.	.	.	.	.	.	.	.	.
2FF^\ 2F	8dd\L	.	2f^/	en	.	2a^/	en	.	2dd^\	en	.
.	8f\	.	.	.	.	.	.	.	.	.	.
.	8a\	.	.	.	.	.	.	.	.	.	.
.	8dd\J)	.	.	.	.	.	.	.	.	.	.
=31	=31	=31	=31	=31	=31	=31	=31	=31	=31	=31	=31
!	!	!	!	!	!LO:DY:a	!	!	!LO:DY:a	!	!	!LO:DY:a
2GG\ 2G	(8cc\L	.	2e/	ce	<	2g/	ce	<	2cc\	ce	<
.	8e\	.	.	.	.	.	.	.	.	.	.
.	8gn\	.	.	.	.	.	.	.	.	.	.
.	8cc\J	.	.	.	.	.	.	.	.	.	.
2GG\ 2G	8f/L 8b	.	(4.d/	beau	.	(4.f/	beau	.	(4.b\	beau	.
.	8d/	.	.	.	.	.	.	.	.	.	.
.	8e/ 8a	.	.	.	.	.	.	.	.	.	.
.	8c/J)	.	8c/)	.	[[	8e/)	.	[[	8a\)	.	[[
!LO:LB:g=original	!LO:LB:g=original	!	!LO:LB:g=original	!	!	!LO:LB:g=original	!	!	!LO:LB:g=original	!	!
=32	=32	=32	=32	=32	=32	=32	=32	=32	=32	=32	=32
*	*^	*	*	*	*	*	*	*	*	*	*
2GG\ 2G	(8g/L	4B\	.	2.B^>/	jour	.	2.d^>/	jour	.	2.g^>/	jour	.
.	8f#X/	.	.	.	.	.	.	.	.	.	.	.
.	8g/	2.ryy	>	.	.	.	.	.	.	.	.	.
.	8f#/J	.	.	.	.	.	.	.	.	.	.	.
2r	8g/L	.	.	.	.	.	.	.	.	.	.	.
.	8g#X/	.	.	.	.	.	.	.	.	.	.	.
.	8a/	.	.	4r	.	.	4r	.	.	4r	.	.
.	8b/J)	.	.	.	.	.	.	.	.	.	.	.
*	*v	*v	*	*	*	*	*	*	*	*	*	*
=33	=33	=33	=33	=33	=33	=33	=33	=33	=33	=33	=33
*^	*	*	*	*	*	*	*	*	*	*	*
!	!	!	!	!	!	!LO:DY:a	!	!	!LO:DY:a	!	!	!LO:DY:a
4C\	1C	2e\ 2cc	] p	2c/	An-	p	2e/	An-	p	2cc\	An-	p
4G\	.	.	.	.	.	.	.	.	.	.	.	.
4G\	.	4.g^\ 4.b	.	4.c/	-ge	.	4.g/	-ge	.	4.b\	-ge	.
4G\	.	.	.	.	.	.	.	.	.	.	.	.
.	.	8f\ 8a	.	8f/	fi-	.	8f/	fi-	.	8a\	fi-	.
=34	=34	=34	=34	=34	=34	=34	=34	=34	=34	=34	=34	=34
4C\	1C	2f/ 2a	.	2f/	-dè-	.	2f/	-dè-	.	2a/	-dè-	.
4G\	.	.	.	.	.	.	.	.	.	.	.	.
4G\	.	2e/ 2g	.	2c/	-le	.	2e/	-le	.	2g/	-le	.
4G\	.	.	.	.	.	.	.	.	.	.	.	.
*v	*v	*	*	*	*	*	*	*	*	*	*	*
=35	=35	=35	=35	=35	=35	=35	=35	=35	=35	=35	=35
*	*^	*	*	*	*	*	*	*	*	*	*
4GG/	2a^/	2B\ 2d	.	2B/	An-	.	2d^>/	An-	.	2a^>/	An-	.
4G\	.	.	.	.	.	.	.	.	.	.	.	.
4G\	4.g/	2B\ 2d	.	4.B/	-ge	.	4.d/	-ge	.	4.g/	-ge	.
4G\	.	.	.	.	.	.	.	.	.	.	.	.
.	8g/	.	.	8B/	d`a-	.	8d/	d`a-	.	8f/	d`a-	.
*	*v	*v	*	*	*	*	*	*	*	*	*	*
=36	=36	=36	=36	=36	=36	=36	=36	=36	=36	=36	=36
4GG/	2d/ 2f	.	(2B/	-mour	.	(2d/	-mour	.	(2f/	-mour	.
4G\	.	.	.	.	.	.	.	.	.	.	.
4C\	2c/ 2e	.	2c/)	.	.	2e/)	.	.	2e/)	.	.
4G\	.	.	.	.	.	.	.	.	.	.	.
!LO:LB:g=original	!LO:LB:g=original	!	!LO:LB:g=original	!	!	!LO:LB:g=original	!	!	!LO:LB:g=original	!	!
=37	=37	=37	=37	=37	=37	=37	=37	=37	=37	=37	=37
!	!	!	!	!	!LO:DY:a	!	!	!LO:DY:a	!	!	!LO:DY:a
4GGG/ 4GG	2B^>/ 2d 2g	.	2B/	Chan-	<	2d/	Chan-	<	2g/	Chan-	<
4BBB/ 4BB	.	.	.	.	.	.	.	.	.	.	.
4DD/ 4D	2B^>/ 2d 2g	.	4d/	-te	.	4d/	-te	.	4g/	-te	.
4GG\ 4G	.	.	4B/	pour	[[	4g/	pour	[[	4g/	pour	[[
=38	=38	=38	=38	=38	=38	=38	=38	=38	=38	=38	=38
!	!	!	!	!	!LO:DY:a	!	!	!LO:DY:a	!	!	!LO:DY:a
2FF\ 2F	2d/ 2a	f	2d/	elle	f	2f/	elle	f	2a/	elle	f
2DD^\ 2D	2f^\ 2a 2dd 2ff	.	2d^>/	en	.	2a^>/	en	.	2ff\	en	.
=39	=39	=39	=39	=39	=39	=39	=39	=39	=39	=39	=39
*	*^	*	*	*	*	*	*	*	*	*	*
2GG\ 2G	2cc/ 2ee	2e\ 2g	.	2g/	ce	.	2cc\	ce	.	2ee\	ce	.
!	!LO:TX:b:i:t=rall.	!	!	!LO:TX:a:i:t=rall.	!	!	!LO:TX:a:i:t=rall.	!	!	!LO:TX:a:i:t=rall.	!	!
2GGG^/ 2GG	4.b^/ 4.dd	2f\ 2g	.	(4.g/	beau	.	(4.b/	beau	.	(4.dd\	beau	.
.	8b/	.	.	8f/)	.	.	8g/)	.	.	8b\)	.	.
*	*v	*v	*	*	*	*	*	*	*	*	*	*
=40	=40	=40	=40	=40	=40	=40	=40	=40	=40	=40	=40
2CC/ 2C	2e/ 2g 2cc	.	2e/	jour	.	2cc\	jour	.	2cc\	jour	.
4C\ 4c	2r	.	2r	.	.	2r	.	.	2r	.	.
4BB\ 4B	.	.	.	.	.	.	.	.	.	.	.
=41||	=41||	=41||	=41||	=41||	=41||	=41||	=41||	=41||	=41||	=41||	=41||
*	*^	*	*	*	*	*	*	*	*	*	*
*	*	*^	*	*	*	*	*	*	*	*	*	*
!	!LO:TX:b:B:t=a tempo.	!	!	!LO:DY:a	!	!	!	!	!	!	!	!	!
4AA\ 4A	2cc#X/	2e\	1a	f	1r	.	.	1r	.	.	1r	.	.
4GG\ 4G	.	.	.	.	.	.	.	.	.	.	.	.	.
4FF#X\ 4F#X	2dd/	2d\	.	.	.	.	.	.	.	.	.	.	.
4DD\ 4D	.	.	.	.	.	.	.	.	.	.	.	.	.
!LO:PB:g=original	!LO:PB:g=original	!LO:PB:g=original	!LO:PB:g=original	!	!LO:PB:g=original	!	!	!LO:PB:g=original	!	!	!LO:PB:g=original	!	!
=42	=42	=42	=42	=42	=42	=42	=42	=42	=42	=42	=42	=42	=42
4GG\ 4G	2b/	2d\	1g	.	1ryy	.	.	1ryy	.	.	1r	.	.
4FFn\ 4Fn	.	.	.	.	.	.	.	.	.	.	.	.	.
4EE\ 4E	2ccn/	2c\	.	.	.	.	.	.	.	.	.	.	.
4CC\ 4C	.	.	.	.	.	.	.	.	.	.	.	.	.
*	*	*v	*v	*	*	*	*	*	*	*	*	*	*
=43	=43	=43	=43	=43	=43	=43	=43	=43	=43	=43	=43	=43
4FF\ 4F	4a/	4f\	.	1ryy	.	.	1ryy	.	.	1r	.	.
4EE\ 4E	4g/	4g\	.	.	.	.	.	.	.	.	.	.
2DD\ 2D	4a/	2f\	.	.	.	.	.	.	.	.	.	.
.	4b/	.	.	.	.	.	.	.	.	.	.	.
=44	=44	=44	=44	=44	=44	=44	=44	=44	=44	=44	=44	=44
2.EE\ 2.E	2.g#X/	2e\	.	1ryy	.	.	1ryy	.	.	1r	.	.
.	.	4d\	.	.	.	.	.	.	.	.	.	.
4AA\ 4A	4a/	4c\	.	.	.	.	.	.	.	.	.	.
*	*v	*v	*	*	*	*	*	*	*	*	*	*
=45	=45	=45	=45	=45	=45	=45	=45	=45	=45	=45	=45
2AA\ 2A	2c/ 2a	.	1ryy	.	.	1ryy	.	.	1r	.	.
2GG;\ 2G	2d^;/ 2f 2b	sf	.	.	.	.	.	.	.	.	.
=46||	=46||	=46||	=46||	=46||	=46||	=46||	=46||	=46||	=46||	=46||	=46||
!	!	!	!	!	!	!	!	!	!LO:TX:a:t=2.me STROPHE Solo.	!	!
4CC/ 4C	8r	p	1ryy	.	.	1ryy	.	.	2cc\	C`est	.
.	8c/L 8e 8g	.	.	.	.	.	.	.	.	.	.
4r	8c/ 8e 8g	.	.	.	.	.	.	.	.	.	.
.	8c/J 8e 8g	.	.	.	.	.	.	.	.	.	.
4r	4c/ 4e 4g	.	.	.	.	.	.	.	4.b\	son	.
8qBB/	.	.	.	.	.	.	.	.	.	.	.
4C\	4r	.	.	.	.	.	.	.	.	.	.
.	.	.	.	.	.	.	.	.	8a\	pou-	.
!LO:LB:g=original	!LO:LB:g=original	!	!LO:LB:g=original	!	!	!LO:LB:g=original	!	!	!LO:LB:g=original	!	!
=47	=47	=47	=47	=47	=47	=47	=47	=47	=47	=47	=47
4CC/ 4C	8r	.	1ryy	.	.	1ryy	.	.	(2a/	-voir	.
.	8c/L 8f 8a	.	.	.	.	.	.	.	.	.	.
4r	8c/ 8f 8a	.	.	.	.	.	.	.	.	.	.
.	8c/J 8f 8a	.	.	.	.	.	.	.	.	.	.
4r	4c/ 4e 4g	.	.	.	.	.	.	.	2g/)	.	.
8qBB/	.	.	.	.	.	.	.	.	.	.	.
4C\	4r	.	.	.	.	.	.	.	.	.	.
=48	=48	=48	=48	=48	=48	=48	=48	=48	=48	=48	=48
4BBB/ 4BB	8r	.	1ryy	.	.	1ryy	.	.	2a^/	qui	.
.	8B/L 8d	.	.	.	.	.	.	.	.	.	.
4r	8f/ 8a	.	.	.	.	.	.	.	.	.	.
.	8d/J 8f	.	.	.	.	.	.	.	.	.	.
4r	4B/ 4d	.	.	.	.	.	.	.	4.g/	nous	.
8qF#X/	.	.	.	.	.	.	.	.	.	.	.
4G\	4r	.	.	.	.	.	.	.	.	.	.
.	.	.	.	.	.	.	.	.	8f/	dé-	.
=49	=49	=49	=49	=49	=49	=49	=49	=49	=49	=49	=49
2GG/	8r	.	1ryy	.	.	1ryy	.	.	2f/	-li-	.
.	8B/L 8d	.	.	.	.	.	.	.	.	.	.
.	8g/	.	.	.	.	.	.	.	.	.	.
.	8c/J 8d	.	.	.	.	.	.	.	.	.	.
4C\ 4G	4c/ 4e	.	.	.	.	.	.	.	2e/	-vre	.
4r	4r	.	.	.	.	.	.	.	.	.	.
=50	=50	=50	=50	=50	=50	=50	=50	=50	=50	=50	=50
2GG^\ 2G	8r	.	1ryy	.	.	1ryy	.	.	2g/	Des	.
.	8B/L 8d 8g	.	.	.	.	.	.	.	.	.	.
.	8B/ 8d 8g	.	.	.	.	.	.	.	.	.	.
.	8B/J 8d 8g	.	.	.	.	.	.	.	.	.	.
2FF^\ 2F	4r	.	.	.	.	.	.	.	4g/	ar-	.
.	4B/ 4d 4g	.	.	.	.	.	.	.	4g/	-ti-	.
=51	=51	=51	=51	=51	=51	=51	=51	=51	=51	=51	=51
!	!	!	!	!	!	!	!	!	!	!	!LO:DY:a
2EE\ 2E	8r	.	1ryy	.	.	1ryy	.	.	4g/	-fi-	<
.	8c/L 8e 8g	<	.	.	.	.	.	.	.	.	.
.	8c/ 8e 8g	.	.	.	.	.	.	.	4g#X/	-ces	.
.	8c/J 8e 8g#X	.	.	.	.	.	.	.	.	.	.
4FF\ 4F	4c/ 4f 4a	.	.	.	.	.	.	.	4a\	du	.
4DD^\ 4D	4f^\ 4a 4dd	[	.	.	.	.	.	.	4dd\	flat-	[[
!LO:LB:g=original	!LO:LB:g=original	!	!LO:LB:g=original	!	!	!LO:LB:g=original	!	!	!LO:LB:g=original	!	!
=52	=52	=52	=52	=52	=52	=52	=52	=52	=52	=52	=52
!	!	!	!	!	!	!	!	!	!	!	!LO:DY:a
2GG\ 2G	8r	f	1ryy	.	.	1ryy	.	.	2cc\	-teur	f
.	8e\L 8gn 8cc	.	.	.	.	.	.	.	.	.	.
.	8e\ 8g 8cc	.	.	.	.	.	.	.	.	.	.
.	8e\J 8g 8cc	.	.	.	.	.	.	.	.	.	.
2GG\ 2G	4r	.	.	.	.	.	.	.	4.b\	du	.
.	4d\ 4f 4g 4b	.	.	.	.	.	.	.	.	.	.
.	.	.	.	.	.	.	.	.	8b\	flat-	.
=53	=53	=53	=53	=53	=53	=53	=53	=53	=53	=53	=53
(2CC/	8e\L 8cc	.	1ryy	.	.	1ryy	.	.	2cc\	-teur	.
.	8g\	.	.	.	.	.	.	.	.	.	.
.	8ee\	.	.	.	.	.	.	.	.	.	.
.	8cc\J	.	.	.	.	.	.	.	.	.	.
4C/)	8g\L	.	.	.	.	.	.	.	2r	.	.
.	8cc\	.	.	.	.	.	.	.	.	.	.
4r	8e\	.	.	.	.	.	.	.	.	.	.
.	8g\J	.	.	.	.	.	.	.	.	.	.
=54	=54	=54	=54	=54	=54	=54	=54	=54	=54	=54	=54
!	!	!	!	!	!	!	!	!	!	!	!LO:DY:a
4CC/ 4C	8r	p	1ryy	.	.	1ryy	.	.	2cc\	Et	p
.	8c/L 8e 8g	.	.	.	.	.	.	.	.	.	.
4r	8c/ 8e 8g	.	.	.	.	.	.	.	.	.	.
.	8c/J 8e 8g	.	.	.	.	.	.	.	.	.	.
4r	4c/ 4e 4g	.	.	.	.	.	.	.	(4.b^\	c`est	.
8qBB/	.	.	.	.	.	.	.	.	.	.	.
4C\	4r	.	.	.	.	.	.	.	.	.	.
.	.	.	.	.	.	.	.	.	8a\)	.	.
=55	=55	=55	=55	=55	=55	=55	=55	=55	=55	=55	=55
4CC/ 4C	8r	.	1ryy	.	.	1ryy	.	.	2a/	el-	.
.	8c/L 8f 8a	.	.	.	.	.	.	.	.	.	.
4r	8c/ 8f 8a	.	.	.	.	.	.	.	.	.	.
.	8c/J 8f 8a	.	.	.	.	.	.	.	.	.	.
4r	4c/ 4e 4g	.	.	.	.	.	.	.	2g/	-le	.
8qBB/	.	.	.	.	.	.	.	.	.	.	.
4C\	4r	.	.	.	.	.	.	.	.	.	.
=56	=56	=56	=56	=56	=56	=56	=56	=56	=56	=56	=56
2.GG^>/	8r	.	1ryy	.	.	1ryy	.	.	2a^>/	qui	.
.	(8B/L 8d	.	.	.	.	.	.	.	.	.	.
.	8f/ 8a	.	.	.	.	.	.	.	.	.	.
.	8d/J) 8f	.	.	.	.	.	.	.	.	.	.
.	4B/ 4d	.	.	.	.	.	.	.	4.g/	nous	.
8qF#X/	.	.	.	.	.	.	.	.	.	.	.
4G\	4r	.	.	.	.	.	.	.	.	.	.
.	.	.	.	.	.	.	.	.	8f/	fait	.
!LO:LB:g=original	!LO:LB:g=original	!	!LO:LB:g=original	!	!	!LO:LB:g=original	!	!	!LO:LB:g=original	!	!
=57	=57	=57	=57	=57	=57	=57	=57	=57	=57	=57	=57
!	!	!	!	!	!	!	!	!	!	!	!LO:DY:a
2GG/	8r	.	1ryy	.	.	1ryy	.	.	2f/	vi-	<
.	8B/L 8d	.	.	.	.	.	.	.	.	.	.
.	8g/	.	.	.	.	.	.	.	.	.	.
.	8B/J 8d	.	.	.	.	.	.	.	.	.	.
!	!	!	!	!	!	!	!	!	!	!	!LO:DY:a
4C\ 4G	4c/ 4e	.	.	.	.	.	.	.	2e/	-vre	[ > ]]
4r	4r	.	.	.	.	.	.	.	.	.	.
=58	=58	=58	=58	=58	=58	=58	=58	=58	=58	=58	=58
2GGG^>/ 2GG	8r	.	1ryy	.	.	1ryy	.	.	2g/	Aux	.
.	8B/L 8d 8g	.	.	.	.	.	.	.	.	.	.
.	8B/ 8d 8g	.	.	.	.	.	.	.	.	.	.
.	8B/J 8d 8g	.	.	.	.	.	.	.	.	.	.
2GG^\ 2G	4r	.	.	.	.	.	.	.	4g/	jours	.
.	4B/ 4d 4g	.	.	.	.	.	.	.	4g/	d`o-	.
=59	=59	=59	=59	=59	=59	=59	=59	=59	=59	=59	=59
!	!	!	!	!	!	!	!	!	!	!	!LO:DY:a
2FF\ 2F	8r	f	1ryy	.	.	1ryy	.	.	(2a/	-ra-	f
.	8d/L	.	.	.	.	.	.	.	.	.	.
.	8f/	.	.	.	.	.	.	.	.	.	.
.	8a/J	.	.	.	.	.	.	.	.	.	.
2DD^\ 2D	4r	.	.	.	.	.	.	.	2ff^\	.	.
.	4f\ 4a 4dd 4ff	.	.	.	.	.	.	.	.	.	.
=60	=60	=60	=60	=60	=60	=60	=60	=60	=60	=60	=60
2GG\ 2G	8r	.	1ryy	.	.	1ryy	.	.	2ee\)	-ges	.
.	8e\L 8g 8cc 8ee	.	.	.	.	.	.	.	.	.	.
.	8e\ 8g 8cc 8ee	.	.	.	.	.	.	.	.	.	.
.	8e\J 8g 8cc 8ee	.	.	.	.	.	.	.	.	.	.
2GG\ 2G	4r	.	.	.	.	.	.	.	4.dd^\	du	.
.	4f\ 4g 4b 4dd	.	.	.	.	.	.	.	.	.	.
.	.	.	.	.	.	.	.	.	8b\	mal-	.
=61	=61	=61	=61	=61	=61	=61	=61	=61	=61	=61	=61
4CC/	2e\ 2g 2cc	.	1ryy	.	.	1ryy	.	.	2cc\	-heur	.
8EE/L	.	.	.	.	.	.	.	.	.	.	.
8GG/J	.	.	.	.	.	.	.	.	.	.	.
8C\L	2r	.	.	.	.	.	.	.	2r	.	.
8E\	.	.	.	.	.	.	.	.	.	.	.
8G\	.	.	.	.	.	.	.	.	.	.	.
8E\J	.	.	.	.	.	.	.	.	.	.	.
!LO:LB:g=original	!LO:LB:g=original	!	!LO:LB:g=original	!	!	!LO:LB:g=original	!	!	!LO:LB:g=original	!	!
=62||	=62||	=62||	=62||	=62||	=62||	=62||	=62||	=62||	=62||	=62||	=62||
!	!	!	!	!	!	!	!	!	!	!	!LO:DY:a
2C\	8r	mf	1ryy	.	.	1ryy	.	.	2ee\	O	mf
.	8e\L 8g 8cc 8ee	.	.	.	.	.	.	.	.	.	.
.	8e\ 8g 8cc 8ee	.	.	.	.	.	.	.	.	.	.
.	8e\J 8g 8cc 8ee	.	.	.	.	.	.	.	.	.	.
4c\	4e\ 4g 4cc 4ee	.	.	.	.	.	.	.	4cc\	Vier-	.
.	(32qqaa/LLL	.	.	.	.	.	.	.	.	.	.
.	32qqgg/	.	.	.	.	.	.	.	.	.	.
.	32qqff#X/JJJ	.	.	.	.	.	.	.	.	.	.
4r	4gg\)	.	.	.	.	.	.	.	4cc\	-ge	.
=63	=63	=63	=63	=63	=63	=63	=63	=63	=63	=63	=63
*^	*	*	*	*	*	*	*	*	*	*	*
4c/	[2C\	8r	.	1ryy	.	.	1ryy	.	.	(4cc\	sain-	.
.	.	8e\ 8g 8cc	.	.	.	.	.	.	.	.	.	.
4B/	.	8r	.	.	.	.	.	.	.	4dd\)	.	.
.	.	8g\ 8dd	.	.	.	.	.	.	.	.	.	.
4c/	4C\]	4e\ 4cc	.	.	.	.	.	.	.	2ee\	-te	.
.	.	(32qqaa/LLL	.	.	.	.	.	.	.	.	.	.
.	.	32qqgg/	.	.	.	.	.	.	.	.	.	.
.	.	32qqff#X/JJJ	.	.	.	.	.	.	.	.	.	.
4r	4ryy	4gg\)	.	.	.	.	.	.	.	.	.	.
*v	*v	*	*	*	*	*	*	*	*	*	*	*
=64	=64	=64	=64	=64	=64	=64	=64	=64	=64	=64	=64
2GG\ 2G	8r	.	1ryy	.	.	1ryy	.	.	2dd\	Pro-	.
.	8d\L 8g 8b 8dd	.	.	.	.	.	.	.	.	.	.
.	8d\ 8g 8b 8dd	.	.	.	.	.	.	.	.	.	.
.	8d\J 8g 8b 8dd	.	.	.	.	.	.	.	.	.	.
4C\ 4G	4e\ 4g 4cc	.	.	.	.	.	.	.	2cc\	-tè-	.
.	(32qqaa/LLL	.	.	.	.	.	.	.	.	.	.
.	32qqgg/	.	.	.	.	.	.	.	.	.	.
.	32qqff#X/JJJ	.	.	.	.	.	.	.	.	.	.
4r	4gg\)	.	.	.	.	.	.	.	.	.	.
=65	=65	=65	=65	=65	=65	=65	=65	=65	=65	=65	=65
4GG\ 4G	8r	.	1ryy	.	.	1ryy	.	.	(4b\	-ge	.
.	8d\ 8g 8b	.	.	.	.	.	.	.	.	.	.
4C\	8r	.	.	.	.	.	.	.	4cc\)	.	.
.	8e\ 8g 8cc	.	.	.	.	.	.	.	.	.	.
4GG\ 4G	4d\ 4g 4b	.	.	.	.	.	.	.	2dd^\	moi	.
.	(32qqaa/LLL	.	.	.	.	.	.	.	.	.	.
.	32qqgg/	.	.	.	.	.	.	.	.	.	.
.	32qqff#X/JJJ	.	.	.	.	.	.	.	.	.	.
4r	4gg\)	.	.	.	.	.	.	.	.	.	.
=66	=66	=66	=66	=66	=66	=66	=66	=66	=66	=66	=66
!	!	!	!	!	!	!	!	!	!	!	!LO:DY:a
2C^\	8r	.	1ryy	.	.	1ryy	.	.	2cc\	Ma	>
.	8e\L 8g 8cc	.	.	.	.	.	.	.	.	.	.
.	8e\ 8g 8cc	.	.	.	.	.	.	.	.	.	.
.	8e\J 8g 8cc	.	.	.	.	.	.	.	.	.	.
2E^\	4r	.	.	.	.	.	.	.	4b\	voix	.
.	4e\ 4g 4b	.	.	.	.	.	.	.	4b\	é-	]
!LO:LB:g=original	!LO:LB:g=original	!	!LO:LB:g=original	!	!	!LO:LB:g=original	!	!	!LO:LB:g=original	!	!
=67	=67	=67	=67	=67	=67	=67	=67	=67	=67	=67	=67
2F^\	8r	.	1r	.	.	1r	.	.	2a\	-tein-	.
.	8f/L 8a	.	.	.	.	.	.	.	.	.	.
.	8f/ 8a	.	.	.	.	.	.	.	.	.	.
.	8f/J 8a	.	.	.	.	.	.	.	.	.	.
2DD^\ 2D	4r	.	.	.	.	.	.	.	2dd^\	-te	.
.	4f^>/ 4a 4dd	.	.	.	.	.	.	.	.	.	.
=68	=68	=68	=68	=68	=68	=68	=68	=68	=68	=68	=68
!	!	!	!	!	!	!	!	!	!	!	!LO:DY:a
2GG^\ 2G	8r	.	1r	.	.	1r	.	.	2cc\	Re-	<
.	8e/L 8g 8cc	<	.	.	.	.	.	.	.	.	.
.	8e/ 8g 8cc	.	.	.	.	.	.	.	.	.	.
.	8e/J 8g 8cc	.	.	.	.	.	.	.	.	.	.
4.G\ 4.d	4.f^>/ 4.b	.	.	.	.	.	.	.	4.b\	-vit	.
8G\ 8c	8e/ 8a	[[	.	.	.	.	.	.	8a\	pour	[[
=69	=69	=69	=69	=69	=69	=69	=69	=69	=69	=69	=69
(2G^\ 2B	2.d^>/ 2.g	.	1r	.	.	1r	.	.	2.g^>/	toi	.
8GG\L) 8G	.	.	.	.	.	.	.	.	.	.	.
8FF\ 8F	.	.	.	.	.	.	.	.	.	.	.
8EE\ 8E	4r	.	.	.	.	.	.	.	4r	.	.
8DD\J 8D	.	.	.	.	.	.	.	.	.	.	.
=70	=70	=70	=70	=70	=70	=70	=70	=70	=70	=70	=70
!	!	!	!	!	!LO:DY:a	!	!	!LO:DY:a	!	!	!LO:DY:a
4CC/ 4C	8r	p	2c/	An-	p	2e/	An-	p	2cc\	An-	p
.	8e/L 8g	.	.	.	.	.	.	.	.	.	.
4r	8e/ 8g	.	.	.	.	.	.	.	.	.	.
.	8e/J 8g	.	.	.	.	.	.	.	.	.	.
4r	4e/ 4g	.	4.c/	-ge	.	4.g/	-ge	.	4.b\	-ge	.
8qBB/	.	.	.	.	.	.	.	.	.	.	.
4C\	4r	.	.	.	.	.	.	.	.	.	.
.	.	.	8c/	fi-	.	8f/	fi-	.	8a\	fi-	.
=71	=71	=71	=71	=71	=71	=71	=71	=71	=71	=71	=71
4CC/ 4C	8r	.	2c/	-dè-	.	2f/	-dè-	.	2a/	-dè-	.
.	8c/L 8f 8a	.	.	.	.	.	.	.	.	.	.
4r	8c/ 8f 8a	.	.	.	.	.	.	.	.	.	.
.	8c/J 8f 8a	.	.	.	.	.	.	.	.	.	.
4r	4c/ 4e 4g	.	2c/	-le	.	2e/	-le	.	2g/	-le	.
8qBB/	.	.	.	.	.	.	.	.	.	.	.
4C\	4r	.	.	.	.	.	.	.	.	.	.
!LO:LB:g=original	!LO:LB:g=original	!	!LO:LB:g=original	!	!	!LO:LB:g=original	!	!	!LO:LB:g=original	!	!
=72	=72	=72	=72	=72	=72	=72	=72	=72	=72	=72	=72
2.GG/	8r	.	2B^>/	An-	.	2d^>/	An-	.	2a^>/	An-	.
.	(>8B/L 8d	.	.	.	.	.	.	.	.	.	.
.	8f/ 8a	.	.	.	.	.	.	.	.	.	.
.	8d/J) 8f	.	.	.	.	.	.	.	.	.	.
.	4B/ 4d	.	4.B/	-ge	.	4.d/	-ge	.	4.g/	-ge	.
8qF#X/	.	.	.	.	.	.	.	.	.	.	.
4G\	4r	.	.	.	.	.	.	.	.	.	.
.	.	.	8B/	d`a-	.	8d/	d`a-	.	8f/	d`a-	.
=73	=73	=73	=73	=73	=73	=73	=73	=73	=73	=73	=73
(2GG/	8r	.	2B/	-mour	.	2d/	-mour	.	(>2f/	-mour	.
.	(>8B/L 8d	.	.	.	.	.	.	.	.	.	.
.	8g/	.	.	.	.	.	.	.	.	.	.
.	8B/J) 8d	.	.	.	.	.	.	.	.	.	.
4C\) 4G	4r	.	2c/	.	.	2e/	.	.	2e/)	.	.
4r	4c/ 4e	.	.	.	.	.	.	.	.	.	.
=74	=74	=74	=74	=74	=74	=74	=74	=74	=74	=74	=74
!	!	!LO:HP:t=cres.	!	!	!LO:DY:a	!	!	!LO:DY:a	!	!	!LO:DY:a
2GGG/ 2GG	2B^>/ 2d 2g	<	2B/	Chan-	<	2d/	Chan-	<	2g/	Chan-	<
2GG\ 2G	2B/ 2d 2g	.	4d/	-te	.	4d/	-te	.	4g/	-te	.
.	.	.	4g/	pour	[[	4g/	pour	[[	4g/	pour	[[
=75	=75	=75	=75	=75	=75	=75	=75	=75	=75	=75	=75
!	!	!LO:DY:a	!	!	!LO:DY:a	!	!	!LO:DY:a	!	!	!LO:DY:a
2FF\ 2F	2A/ 2f 2a	f	2f/	el-	f	2f/	el-	f	2a/	ei-	f
2DD^\ 2D	2f^\ 2a 2dd 2ff	.	2d^>/	-le	.	2a^>/	-le	.	2ff^\	-le	.
=76	=76	=76	=76	=76	=76	=76	=76	=76	=76	=76	=76
2GG\ 2G	2e\ 2g 2cc 2ee	.	2g/	En	.	2cc\	En	.	2ee\	En	.
2GGG/ 2GG	4.f\ 4.g 4.b 4.dd	.	4.g^>/	ce	.	4.b^\	ce	.	4.dd^\	ce	.
.	8f\ 8g 8b	.	8f/	beau	.	8g/	beau	.	8b\	beau	.
=77	=77	=77	=77	=77	=77	=77	=77	=77	=77	=77	=77
*^	*	*	*	*	*	*	*	*	*	*	*
4.C/	2CC\ 2C	2e\ 2g 2cc	.	2e/	jour	.	2cc\	jour	.	2cc\	jour	.
8E/	.	.	.	.	.	.	.	.	.	.	.	.
8A\L	2ryy	2r	<[	2r	.	.	2r	.	.	2r	.	.
8G\	.	.	.	.	.	.	.	.	.	.	.	.
8E\	.	.	.	.	.	.	.	.	.	.	.	.
8C\J	.	.	.	.	.	.	.	.	.	.	.	.
!LO:LB:g=original	!LO:LB:g=original	!LO:LB:g=original	!	!LO:LB:g=original	!	!	!LO:LB:g=original	!	!	!LO:LB:g=original	!	!
*v	*v	*	*	*	*	*	*	*	*	*	*	*
=78	=78	=78	=78	=78	=78	=78	=78	=78	=78	=78	=78
2BB^\	8r	f	1r	.	.	1r	.	.	1r	.	.
.	8f\L 8g 8dd	.	.	.	.	.	.	.	.	.	.
.	8f\ 8g 8dd	.	.	.	.	.	.	.	.	.	.
.	8f\J 8g 8dd	.	.	.	.	.	.	.	.	.	.
4C\	8r	.	.	.	.	.	.	.	.	.	.
.	8e\ 8g 8cc	.	.	.	.	.	.	.	.	.	.
4BB\	8r	.	.	.	.	.	.	.	.	.	.
.	8e\ 8g 8cc	.	.	.	.	.	.	.	.	.	.
=79	=79	=79	=79	=79	=79	=79	=79	=79	=79	=79	=79
2AA^>/	8r	.	1r	.	.	1r	.	.	1r	.	.
.	8d\L 8f#X 8cc	.	.	.	.	.	.	.	.	.	.
.	8d\ 8f# 8cc	.	.	.	.	.	.	.	.	.	.
.	8d\J 8f# 8cc	.	.	.	.	.	.	.	.	.	.
4GG/	8r	.	.	.	.	.	.	.	.	.	.
.	8d\ 8g 8b	.	.	.	.	.	.	.	.	.	.
4FF/	8r	.	.	.	.	.	.	.	.	.	.
.	8d\ 8g 8b	.	.	.	.	.	.	.	.	.	.
=80	=80	=80	=80	=80	=80	=80	=80	=80	=80	=80	=80
4EE/	4e^\ 4g 4cc	<	1r	.	.	1r	.	.	1r	.	.
4FF/	4d^\ 4a 4dd	.	.	.	.	.	.	.	.	.	.
4..GG/	4..fn^\ 4..g 4..b	[ >	.	.	.	.	.	.	.	.	.
16CC/ 16C	16e\ 16g 16cc	]]	.	.	.	.	.	.	.	.	.
=81	=81	=81	=81	=81	=81	=81	=81	=81	=81	=81	=81
2CC/ 2C	2e^\ 2g 2cc	.	1r	.	.	1r	.	.	1r	.	.
2r	2r	.	.	.	.	.	.	.	.	.	.
=82||	=82||	=82||	=82||	=82||	=82||	=82||	=82||	=82||	=82||	=82||	=82||
!	!	!	!	!	!	!	!	!LO:DY:a	!LO:TX:a:t=3me STROPHE.	!	!LO:DY:a
2CC/ 2C	8r	f	1r	.	.	4e/	Oh	f	4cc\	Oh	f
.	(>8G/L	.	.	.	.	.	.	.	.	.	.
.	8e/	.	.	.	.	4e/	que	.	4cc\	que	.
.	8c/J	.	.	.	.	.	.	.	.	.	.
4C\ 4E	8g/L	.	.	.	.	4.g/	l`u-	.	4.b\	l`u-	.
.	8e/	.	.	.	.	.	.	.	.	.	.
4r	8c/	.	.	.	.	.	.	.	.	.	.
.	8G/J)	.	.	.	.	8f/	-ni-	.	8a\	-ni-	.
=83	=83	=83	=83	=83	=83	=83	=83	=83	=83	=83	=83
!	!	!	!	!	!LO:DY:a	!	!	!	!	!	!
4CC/ 4C	8r	.	4c/	Oh	f	(>2f/	-vers	.	(2a\	-vers	.
.	(>8G/L	.	.	.	.	.	.	.	.	.	.
4r	8e/	.	4c/	que	.	.	.	.	.	.	.
.	8c/J	.	.	.	.	.	.	.	.	.	.
4C\ 4E	8g/L	.	4c/	l`u-	.	2e/)	.	.	2g\)	.	.
.	8e/	.	.	.	.	.	.	.	.	.	.
4r	8c/	.	4c/	-ni-	.	.	.	.	.	.	.
.	8G/J)	.	.	.	.	.	.	.	.	.	.
!LO:PB:g=original	!LO:PB:g=original	!	!LO:PB:g=original	!	!	!LO:PB:g=original	!	!	!LO:PB:g=original	!	!
=84	=84	=84	=84	=84	=84	=84	=84	=84	=84	=84	=84
4GGG/ 4GG	8r	.	2B^/	-vers	.	2d/	re-	.	2a/	re-	.
.	(>8G/L	.	.	.	.	.	.	.	.	.	.
4r	8f/	.	.	.	.	.	.	.	.	.	.
.	8d/J	.	.	.	.	.	.	.	.	.	.
4BB/ 4D	8g/L	.	4B/	re-	.	2d/	-ten-	.	(>4.g/	-ten-	.
.	8f/	.	.	.	.	.	.	.	.	.	.
4r	8d/	.	4d/	-ten-	.	.	.	.	.	.	.
.	8G/J)	.	.	.	.	.	.	.	8f/)	.	.
=85	=85	=85	=85	=85	=85	=85	=85	=85	=85	=85	=85
4GGG/ 4GG	8r	.	2g^>/	-tis-	.	2d/	-tis-	.	2f^>/	-tis-	.
.	(>8g/L	.	.	.	.	.	.	.	.	.	.
4r	8a/	.	.	.	.	.	.	.	.	.	.
.	8b/J	.	.	.	.	.	.	.	.	.	.
4CC/	8cc/L	.	2c/	-se	.	2e/	-se	.	2e/	-se	.
.	8g/	.	.	.	.	.	.	.	.	.	.
4r	8e/	.	.	.	.	.	.	.	.	.	.
.	8c/J)	.	.	.	.	.	.	.	.	.	.
=86	=86	=86	=86	=86	=86	=86	=86	=86	=86	=86	=86
!	!	!	!	!	!LO:DY:a	!	!	!LO:DY:a	!	!	!LO:DY:a
2GGG/ 2GG	8r	.	2B/	De	<	2d/	De	<	2g/	De	<
!	!	!LO:HP:t=cres.	!	!	!	!	!	!	!	!	!
.	(>8B/L	<	.	.	.	.	.	.	.	.	.
.	8d/	.	.	.	.	.	.	.	.	.	.
.	8g/J	.	.	.	.	.	.	.	.	.	.
2GG\ 2G	8b/L	.	4d/	son	.	4g/	son	.	4g/	son	.
.	8d/	.	.	.	.	.	.	.	.	.	.
.	8g/	.	4B/	tri-	[[	4g/	tri-	[[	4g/	tri-	[[
.	8b/J)	.	.	.	.	.	.	.	.	.	.
=87	=87	=87	=87	=87	=87	=87	=87	=87	=87	=87	=87
2FF\ 2F	(8a\L	f	2d/	-om-	.	2f/	-om-	.	2a/	-om-	.
.	8g#X\	.	.	.	.	.	.	.	.	.	.
.	8a\	.	.	.	.	.	.	.	.	.	.
.	8cc#X\J	.	.	.	.	.	.	.	.	.	.
2DD\ 2D	8dd\L	.	2d^>/	-phe	.	2a^>/	-phe	.	2ff^\	-phe	.
.	8a\	.	.	.	.	.	.	.	.	.	.
.	8dd\	.	.	.	.	.	.	.	.	.	.
.	8ff\J)	.	.	.	.	.	.	.	.	.	.
=88	=88	=88	=88	=88	=88	=88	=88	=88	=88	=88	=88
2GG\ 2G	(8ee\L	.	2g/	dans	.	2cc\	dans	.	2ee\	dans	.
.	8ccn\	.	.	.	.	.	.	.	.	.	.
.	8g\	.	.	.	.	.	.	.	.	.	.
.	8ee\J	.	.	.	.	.	.	.	.	.	.
2GG\ 2G	8dd\L	.	(4.g/	les	.	(4.b\	les	.	(4.dd\	les	.
.	8g\	.	.	.	.	.	.	.	.	.	.
.	8a\	.	.	.	.	.	.	.	.	.	.
.	8b\J)	.	8f/)	.	.	8g\)	.	.	8b\)	.	.
!LO:LB:g=original	!LO:LB:g=original	!	!LO:LB:g=original	!	!	!LO:LB:g=original	!	!	!LO:LB:g=original	!	!
=89	=89	=89	=89	=89	=89	=89	=89	=89	=89	=89	=89
2C/	(>8cc/L	>	2e/	cieux	.	2g/	cieux	.	2cc\	cieux	.
.	8g/	.	.	.	.	.	.	.	.	.	.
.	8f#X/	.	.	.	.	.	.	.	.	.	.
.	8a/J	.	.	.	.	.	.	.	.	.	.
2r	8g/L	.	2r	.	.	2r	.	.	2r	.	.
.	8e/	.	.	.	.	.	.	.	.	.	.
.	8d/	.	.	.	.	.	.	.	.	.	.
.	8fn/J)	]]	.	.	.	.	.	.	.	.	.
=90	=90	=90	=90	=90	=90	=90	=90	=90	=90	=90	=90
!	!	!	!	!	!	!	!	!LO:DY:a	!	!	!LO:DY:a
4CC/ 4C	(>8e/L	p	1r	.	.	2e/	Et	p	2cc\	Et	p
.	8G/	.	.	.	.	.	.	.	.	.	.
4r	8e/	.	.	.	.	.	.	.	.	.	.
.	8c/J	.	.	.	.	.	.	.	.	.	.
4C\ 4E	8g/L	.	.	.	.	4.g/	que	.	4.b\	que	.
.	8e/	.	.	.	.	.	.	.	.	.	.
4r	8c/	.	.	.	.	.	.	.	.	.	.
.	8G/J)	.	.	.	.	8f/	le	.	8a\	le	.
=91	=91	=91	=91	=91	=91	=91	=91	=91	=91	=91	=91
4CC/ 4C	8r	.	4r	.	.	2f/	pau-	.	2a/	pau-	.
.	(>8G/L	.	.	.	.	.	.	.	.	.	.
!	!	!	!	!	!LO:DY:a	!	!	!	!	!	!
4r	8e/	.	4c/	Et	p	.	.	.	.	.	.
.	8c/J	.	.	.	.	.	.	.	.	.	.
4C\ 4E	8g/L	.	4c/	que	.	2e/	-vre	.	2g/	-vre	.
.	8e/	.	.	.	.	.	.	.	.	.	.
4r	8c/	.	4c/	le	.	.	.	.	.	.	.
.	8G/J)	.	.	.	.	.	.	.	.	.	.
=92	=92	=92	=92	=92	=92	=92	=92	=92	=92	=92	=92
4GGG/ 4GG	8r	.	4B/	pau-	.	(>2d/	la	.	2a/	la	.
.	(>8G/L	.	.	.	.	.	.	.	.	.	.
4r	8f/	.	4B/	-vre	.	.	.	.	.	.	.
.	8d/J	.	.	.	.	.	.	.	.	.	.
4BB/ 4D	8g/L	.	4.B/	la	.	4.d/)	.	.	4.g/	.	.
.	8f/	.	.	.	.	.	.	.	.	.	.
4r	8d/	.	.	.	.	.	.	.	.	.	.
.	8G/J)	.	8d/	bé-	.	8d/	bé-	.	8f/	bé-	.
=93	=93	=93	=93	=93	=93	=93	=93	=93	=93	=93	=93
(2GG/	8r	.	2g^>/	-nis-	.	2d^>/	-nis-	.	2f^>/	-nis-	.
.	(>8G/L	.	.	.	.	.	.	.	.	.	.
.	8f/	.	.	.	.	.	.	.	.	.	.
.	8d/J	.	.	.	.	.	.	.	.	.	.
4C/)	8c/L	.	2cc\	-se	.	2e/	-se	.	2e/	-se	.
.	8G/	.	.	.	.	.	.	.	.	.	.
4r	8e/	.	.	.	.	.	.	.	.	.	.
.	8c/J)	.	.	.	.	.	.	.	.	.	.
!LO:LB:g=original	!LO:LB:g=original	!	!LO:LB:g=original	!	!	!LO:LB:g=original	!	!	!LO:LB:g=original	!	!
=94	=94	=94	=94	=94	=94	=94	=94	=94	=94	=94	=94
!	!	!	!	!	!LO:DY:a	!	!	!LO:DY:a	!	!	!LO:DY:a
2GGG/ 2GG	(>8B/L	f	2B/	Et	<	2d/	Et	<	2g/	Et	<
.	8d/)	.	.	.	.	.	.	.	.	.	.
.	8g'/	.	.	.	.	.	.	.	.	.	.
.	8g'/J	.	.	.	.	.	.	.	.	.	.
2GG\ 2G	(>8d/L	.	2g/	l`ap-	[[	2g/	l`ap-	[[	2g/	l`ap-	[[
.	8g/)	.	.	.	.	.	.	.	.	.	.
.	8b'/	.	.	.	.	.	.	.	.	.	.
.	8b'/J	.	.	.	.	.	.	.	.	.	.
=95	=95	=95	=95	=95	=95	=95	=95	=95	=95	=95	=95
!	!	!	!	!	!LO:DY:a	!	!	!LO:DY:a	!	!	!LO:DY:a
2FF\ 2F	(8a\L	.	2f/	-pelle	f	2f/	-pelle	f	2a/	-pelle	f
.	8g#X\	.	.	.	.	.	.	.	.	.	.
.	8a\	.	.	.	.	.	.	.	.	.	.
.	8dd\J	.	.	.	.	.	.	.	.	.	.
2DD^\ 2D	8ff\L	.	2d/	à	.	2a/	à	.	2ff\	à	.
.	8dd\	.	.	.	.	.	.	.	.	.	.
.	8a\	.	.	.	.	.	.	.	.	.	.
.	8ff\J)	.	.	.	.	.	.	.	.	.	.
=96	=96	=96	=96	=96	=96	=96	=96	=96	=96	=96	=96
2GGG^>/ 2GG	(8ee\L	.	4.g/	son	.	4.cc\	son	.	4.ee\	son	.
.	8ccn\	.	.	.	.	.	.	.	.	.	.
.	8g\	.	.	.	.	.	.	.	.	.	.
.	8ee\J	.	8g/	fo-	.	8cc\	fo-	.	8ee\	fo-	.
2GG^\ 2G	8dd\L	.	(4g/	-yer	.	2b\	-yer	.	2dd\	-yer	.
.	8b\	.	.	.	.	.	.	.	.	.	.
.	8g\	.	4f/)	.	.	.	.	.	.	.	.
.	8b\J)	.	.	.	.	.	.	.	.	.	.
=97	=97	=97	=97	=97	=97	=97	=97	=97	=97	=97	=97
2CC/ 2C	(8cc\L	.	2e/	pieux	.	2cc\	pieux	.	2cc\	pieux	.
.	8ee\	.	.	.	.	.	.	.	.	.	.
.	8cc\	.	.	.	.	.	.	.	.	.	.
.	8g\J	.	.	.	.	.	.	.	.	.	.
2r	8e\L	.	2r	.	.	2r	.	.	2r	.	.
.	8g\	.	.	.	.	.	.	.	.	.	.
.	8cc\	.	.	.	.	.	.	.	.	.	.
.	8g\J)	.	.	.	.	.	.	.	.	.	.
=98||	=98||	=98||	=98||	=98||	=98||	=98||	=98||	=98||	=98||	=98||	=98||
!	!LO:TX:b:i:t=marcato.	!	!	!	!LO:DY:a	!	!	!LO:DY:a	!	!	!LO:DY:a
8r	2e/ 2g 2ee	f	2c/	Mère	f	2g/	Mère	f	2ee\	Mère	f
8C\L	.	.	.	.	.	.	.	.	.	.	.
8G\	.	.	.	.	.	.	.	.	.	.	.
8E\J	.	.	.	.	.	.	.	.	.	.	.
8c\L	4e/ 4g 4cc	.	4e/	a-	.	4g/	a-	.	4cc\	a-	.
8G\	.	.	.	.	.	.	.	.	.	.	.
8E\	4e/ 4g 4cc	.	4e/	-do-	.	4g/	-do-	.	4cc\	-do-	.
8C\J	.	.	.	.	.	.	.	.	.	.	.
!LO:LB:g=original	!LO:LB:g=original	!	!LO:LB:g=original	!	!	!LO:LB:g=original	!	!	!LO:LB:g=original	!	!
=99	=99	=99	=99	=99	=99	=99	=99	=99	=99	=99	=99
8r	4e\ 4g 4cc	.	(4e/	-ré-	.	2g/	-ré-	.	(4cc\	-ré-	.
8C\L	.	.	.	.	.	.	.	.	.	.	.
8G\	4e\ 4g 4dd	.	4d/)	.	.	.	.	.	4dd\)	.	.
8E\J	.	.	.	.	.	.	.	.	.	.	.
8c\L	2e^\ 2g 2ee	.	2c/	-e	.	2g/	-e	.	2ee\	-e	.
8G\	.	.	.	.	.	.	.	.	.	.	.
8E\	.	.	.	.	.	.	.	.	.	.	.
8C\J	.	.	.	.	.	.	.	.	.	.	.
=100	=100	=100	=100	=100	=100	=100	=100	=100	=100	=100	=100
8r	2d\ 2g 2dd	.	2f/	de	.	2g/	de	.	2dd\	de	.
8GG\L	.	.	.	.	.	.	.	.	.	.	.
8D\	.	.	.	.	.	.	.	.	.	.	.
8BB\J	.	.	.	.	.	.	.	.	.	.	.
4C\	2e\ 2g 2cc	.	2e/	mon	.	2g/	mon	.	2cc\	mon	.
4G\	.	.	.	.	.	.	.	.	.	.	.
=101	=101	=101	=101	=101	=101	=101	=101	=101	=101	=101	=101
8GG\L	4d\ 4g 4b	.	(4d/	sau-	.	2g/	sau-	.	4b\	sau-	.
8G\	.	.	.	.	.	.	.	.	.	.	.
8C\	4d\ 4g 4cc	.	4c/)	.	.	.	.	.	4cc\	.	.
8G\J	.	.	.	.	.	.	.	.	.	.	.
8GG\L	2d^\ 2g 2dd	.	2B/	-veur	.	2g/	-veur	.	2dd\	-veur	.
8BB\	.	.	.	.	.	.	.	.	.	.	.
8D\	.	.	.	.	.	.	.	.	.	.	.
8G\J	.	.	.	.	.	.	.	.	.	.	.
=102	=102	=102	=102	=102	=102	=102	=102	=102	=102	=102	=102
!	!	!	!	!	!LO:DY:a	!	!	!LO:DY:a	!	!	!LO:DY:a
8r	2e^\ 2cc	<	2c/	Sois	<	2e/	Sois	<	2cc\	Sois	<
8EE/L	.	.	.	.	.	.	.	.	.	.	.
8C/	.	.	.	.	.	.	.	.	.	.	.
8GG/J	.	.	.	.	.	.	.	.	.	.	.
8E/L	2g^\ 2b	[[	4e/	ma	.	4g/	ma	.	4b\	ma	.
8C/	.	.	.	.	.	.	.	.	.	.	.
8GG/	.	.	4e/	lu-	[[	4g/	lu-	[[	4b\	lu-	[[
8EE/J	.	.	.	.	.	.	.	.	.	.	.
=103	=103	=103	=103	=103	=103	=103	=103	=103	=103	=103	=103
8r	2f^>/ 2a	.	2f/	-miè-	.	2f/	-miè-	.	2a\	-miè-	.
8FF/L	.	.	.	.	.	.	.	.	.	.	.
8D/	.	.	.	.	.	.	.	.	.	.	.
8AA/J	.	.	.	.	.	.	.	.	.	.	.
8F/L	2f/ 2a 2dd	sf	2f^/	-re	.	2a/	-re	.	2dd^\	-re	.
8D/	.	.	.	.	.	.	.	.	.	.	.
8AA/	.	.	.	.	.	.	.	.	.	.	.
8FF/J	.	.	.	.	.	.	.	.	.	.	.
!LO:LB:g=original	!LO:LB:g=original	!	!LO:LB:g=original	!	!	!LO:LB:g=original	!	!	!LO:LB:g=original	!	!
=104	=104	=104	=104	=104	=104	=104	=104	=104	=104	=104	=104
!	!	!	!	!	!	!	!	!	!	!	!LO:DY:a
2G\ 2c	2e/ 2g 2cc	<	2e/	mon	.	2g/	mon	.	2cc\	mon	<
4.G\ 4.d	4.f/ 4.b	.	4.d/	seul	.	4.f/	seul	.	4.b\	seul	.
8G\ 8c	8e/ 8a	[[	8c/	bon-	.	8e/	bon-	.	8a\	bon-	[[
=105	=105	=105	=105	=105	=105	=105	=105	=105	=105	=105	=105
[2G\ 2B	2d^/ 2g	.	2.B/	-heur	.	2.d/	-heur	.	2.g^>/	-heur	.
8G\L]	2r	.	.	.	.	.	.	.	.	.	.
8F\	.	.	.	.	.	.	.	.	.	.	.
8E\	.	.	4r	.	.	4r	.	.	4r	.	.
8D\J	.	.	.	.	.	.	.	.	.	.	.
=106	=106	=106	=106	=106	=106	=106	=106	=106	=106	=106	=106
!	!	!	!	!	!LO:DY:a	!	!	!LO:DY:a	!	!	!LO:DY:a
2.C\	(>8cc/L	p	2c/	An-	p	2e/	An-	p	2cc\	An-	p
.	8e/	.	.	.	.	.	.	.	.	.	.
.	8c/	.	.	.	.	.	.	.	.	.	.
.	8cc/J	.	.	.	.	.	.	.	.	.	.
.	8b/L	.	4.c/	-ge	.	4.f/	-ge	.	4.b\	-ge	.
.	8f/	.	.	.	.	.	.	.	.	.	.
4C\	8c/	.	.	.	.	.	.	.	.	.	.
.	8a/J	.	8c/	fi-	.	8f/	fi-	.	8a\	fi-	.
=107	=107	=107	=107	=107	=107	=107	=107	=107	=107	=107	=107
2C\	8a/L	.	2c/	-dè-	.	2f/	-dè-	.	2a/	-dè-	.
.	8f/	.	.	.	.	.	.	.	.	.	.
.	8c/	.	.	.	.	.	.	.	.	.	.
.	8a/J	.	.	.	.	.	.	.	.	.	.
4CC/	8g/L	.	2c/	-le	.	2e/	-le	.	2g/	-le	.
.	8e/	.	.	.	.	.	.	.	.	.	.
4r	8c/	.	.	.	.	.	.	.	.	.	.
.	8e/J)	.	.	.	.	.	.	.	.	.	.
=108	=108	=108	=108	=108	=108	=108	=108	=108	=108	=108	=108
2.GG/	(>8a/L	.	2B/	An-	.	2d/	An-	.	2a/	An-	.
.	8d/	.	.	.	.	.	.	.	.	.	.
.	8B/	.	.	.	.	.	.	.	.	.	.
.	8d/J	.	.	.	.	.	.	.	.	.	.
.	8g/L	.	4.B/	-ge	.	4.d/	-ge	.	4.g/	-ge	.
.	8d/	.	.	.	.	.	.	.	.	.	.
4GG/	8B/	.	.	.	.	.	.	.	.	.	.
.	8f/J	.	8B/	d`a-	.	8d/	d`a-	.	8f/	d`a-	.
!LO:LB:g=original	!LO:LB:g=original	!	!LO:LB:g=original	!	!	!LO:LB:g=original	!	!	!LO:LB:g=original	!	!
=109	=109	=109	=109	=109	=109	=109	=109	=109	=109	=109	=109
2GG/	8f/L	.	(>2B/	-mour	.	(>2d/	-mour	.	(>2f/	-mour	.
.	8d/	.	.	.	.	.	.	.	.	.	.
.	8B/	.	.	.	.	.	.	.	.	.	.
.	8d/J	.	.	.	.	.	.	.	.	.	.
4C/	8e/L	.	2c/)	.	.	2e/)	.	.	2e/)	.	.
.	8c/	.	.	.	.	.	.	.	.	.	.
4r	8e/	.	.	.	.	.	.	.	.	.	.
.	8g/J)	.	.	.	.	.	.	.	.	.	.
=110	=110	=110	=110	=110	=110	=110	=110	=110	=110	=110	=110
!	!	!LO:HP:t=cres---	!	!	!	!	!	!	!	!	!
2GG\ 2G	8g/L	<	2B/	Chan-	.	2d/	Chan-	.	2g/	Chan-	.
.	8B/	.	.	.	.	.	.	.	.	.	.
.	8d/	.	.	.	.	.	.	.	.	.	.
.	8g/J	.	.	.	.	.	.	.	.	.	.
2GG\ 2G	8b/L	.	4d/	-te	.	4g/	-te	.	4g/	-te	.
.	8d/	.	.	.	.	.	.	.	.	.	.
.	8g/	.	4B/	pour	.	4g/	pour	.	4g/	pour	.
.	8b/J	.	.	.	.	.	.	.	.	.	.
=111	=111	=111	=111	=111	=111	=111	=111	=111	=111	=111	=111
*	*^	*	*	*	*	*	*	*	*	*	*
!	!	!	!	!	!	!	!	!	!	!	!	!LO:DY:a
2FF\ 2F	8a/L	2ryy	f	1d	elle	.	(>2f/	elle	.	(2a\	elle	f
.	8g#X/	.	.	.	.	.	.	.	.	.	.	.
.	8a/	.	.	.	.	.	.	.	.	.	.	.
.	8b/J	.	.	.	.	.	.	.	.	.	.	.
2DD\ 2D	2ff/	8ff\L	.	.	.	.	2a/)	.	.	2ff\)	.	.
.	.	8dd\	.	.	.	.	.	.	.	.	.	.
.	.	8a\	.	.	.	.	.	.	.	.	.	.
.	.	8f\J	.	.	.	.	.	.	.	.	.	.
=112	=112	=112	=112	=112	=112	=112	=112	=112	=112	=112	=112	=112
!	!LO:TX:b:i:t=col canto rall.	!	!	!	!	!	!	!	!	!	!	!
2GG\ 2G	2ee/	8ee\L	.	2g/	En	.	2cc\	En	.	2ee\	En	.
.	.	8cc\	.	.	.	.	.	.	.	.	.	.
.	.	8g\	.	.	.	.	.	.	.	.	.	.
.	.	8e\J	.	.	.	.	.	.	.	.	.	.
2GGG/ 2GG	2ee/	8dd\L	.	4.g/	ce	.	4.b\	ce	.	4.dd\	ce	.
.	.	8b\	.	.	.	.	.	.	.	.	.	.
.	.	8g\	.	.	.	.	.	.	.	.	.	.
.	.	8f\J	.	8f/	beau	.	8g\	beau	.	8b\	beau	.
=113	=113	=113	=113	=113	=113	=113	=113	=113	=113	=113	=113	=113
2C\	2cc/	8cc\L	.	2e;/	jour	.	2cc;\	jour	.	2cc;\	jour	.
.	.	(8e\	.	.	.	.	.	.	.	.	.	.
.	.	(8g\	.	.	.	.	.	.	.	.	.	.
.	.	[8cc\J	.	.	.	.	.	.	.	.	.	.
2C;<\ 2G 2c	2cc;\] 2ee	2e\) 2g)	.	2r	.	.	2r	.	.	2r	.	.
*	*v	*v	*	*	*	*	*	*	*	*	*	*
=114	=114	=114	=114	=114	=114	=114	=114	=114	=114	=114	=114
1CC;< 1C	1c; 1e 1g 1cc	.	1r	.	.	1r	.	.	1r	.	.
==	==	==	==	==	==	==	==	==	==	==	==
*-	*-	*-	*-	*-	*-	*-	*-	*-	*-	*-	*-
!!!RDF**kern: > = above
!!!RDF**kern: < = below
!!!system-decoration: [(s1,s2,s3)][(s4,s5)]
!!!ENC: Filip Voros
!!!END: 2022-08-08
!!!ENC: Julita Ruszuk
!!!END: 2022-09-04!!!YEC: Copyright 2022 Narodowy Instytut Fryderyka Chopina (https://polishscores.org)
!!!YEM: Licence CC BY 4.0 (https://creativecommons.org/licenses/by/4.0)
